src/assets/image/svg/l2-feature-icon1.svg

<svg height="28" viewBox="0 0 24 28" width="24" xmlns="http://www.w3.org/2000/svg"><g fill="#f04037"><path d="m9.412 16h-8.824a.602.602 0 0 1 -.588-.615v-14.77c0-.34.264-.615.588-.615h8.824c.324 0 .588.276.588.615v14.77c0 .34-.264.615-.588.615z"/><path d="m9.412 28h-8.824c-.324 0-.588-.288-.588-.643v-7.714c0-.355.264-.643.588-.643h8.824c.324 0 .588.288.588.643v7.714c0 .355-.264.643-.588.643z"/><path d="m23.412 9h-8.824c-.324 0-.588-.288-.588-.643v-7.714c0-.355.264-.643.588-.643h8.824c.324 0 .588.288.588.643v7.714c0 .355-.264.643-.588.643z"/><path d="m23.412 28h-8.824a.602.602 0 0 1 -.588-.615v-14.77c0-.34.264-.615.588-.615h8.824c.324 0 .588.276.588.615v14.77c0 .34-.264.615-.588.615z"/></g></svg>

<svg xmlns="http://www.w3.org/2000/svg" width="24" height="28" viewBox="0 0 24 28"><g><g><g><path fill="#f04037" d="M9.412 16H.588A.602.602 0 0 1 0 15.385V.615C0 .275.264 0 .588 0h8.824c.324 0 .588.276.588.615v14.77c0 .34-.264.615-.588.615z"/></g><g><path fill="#f04037" d="M9.412 28H.588C.264 28 0 27.712 0 27.357v-7.714C0 19.288.264 19 .588 19h8.824c.324 0 .588.288.588.643v7.714c0 .355-.264.643-.588.643z"/></g><g><path fill="#f04037" d="M23.412 9h-8.824C14.264 9 14 8.712 14 8.357V.643c0-.355.264-.643.588-.643h8.824c.324 0 .588.288.588.643v7.714c0 .355-.264.643-.588.643z"/></g><g><path fill="#f04037" d="M23.412 28h-8.824a.602.602 0 0 1-.588-.615v-14.77c0-.34.264-.615.588-.615h8.824c.324 0 .588.276.588.615v14.77c0 .34-.264.615-.588.615z"/></g></g></g></svg>
